src/img/star.svg

<svg width="27" height="25" viewBox="0 0 27 25" fill="none" xmlns="http://www.w3.org/2000/svg">
<path d="M13.5688 0L16.6151 9.52282H26.4734L18.4979 15.4082L21.5443 24.9311L13.5688 19.0456L5.59324 24.9311L8.63961 15.4082L0.664102 9.52282H10.5224L13.5688 0Z" fill="#BDBEC2" fill-opacity="0.7"/>
</svg>

<svg width="27" height="25" fill="none" xmlns="http://www.w3.org/2000/svg"><path d="M13.569 0l3.046 9.523h9.858l-7.975 5.885 3.046 9.523-7.975-5.885-7.976 5.885 3.047-9.523L.664 9.523h9.858L13.57 0z" fill="#BDBEC2" fill-opacity=".7"/></svg>
